X:1
T:Title
%%score { 1 | 2 }
L:1/8
Q:1/4=100
M:4/4
K:C
V:1 treble nm="Grand Piano"
V:2 bass 
V:1
 [Ec]3 E E>E D>E | [EG]4 [DF]2 z2 | [Fd]3 [DF] [DF]>[DF] [^CE]>[B,DF] | [FA]4 [EG]2 z2 | %4
w: G.~F.~Root * * * * *||||
 [Ec]3 [Ec] [FB]2 [Gc]2 | [Ad]2 A2 c2 BA | G2 c2 d3 [Ec] | [Ec]6 z2 | c2 A2 c2 z2 | %9
w: |||||
 [Ec]2 [EG]2 [Ec]2 z2 | [DF]3 [DF] [DF]>[^CE] [DF]>[EG] | [G,CE]6 z2 | [Ec]2 [EG]2 [Ec]2 z2 | %13
w: ||||
 c2 A2 c2 B>A | G2 c2 d3 [Ec] | [Ec]6 z2 |] %16
w: |||
V:2
 [C,G,]3 [C,G,C] [C,G,C]>[C,G,C] [C,G,B,]>[C,G,C] | [G,,G,]6 z2 | %2
 [G,,G,]3 [G,,G,] [G,,G,]>[G,,G,] [G,,G,]>G,, | [C,C]6 z2 | [C,G,]3 [C,G,] [D,G,]2 [E,C]2 | %5
 [F,A,]2 [F,A,F]2 [^F,A,D]2 [F,B,D][F,CD] | [G,CE]2 [G,CE]2 [G,B,F]3[K:bass] [C,C] | [C,C]6 z2 | %8
 [F,A,F]2 [F,CF]2 [F,A,F]2 z2 | [C,G,]2 [C,C]2 [C,G,]2 z2 | %10
 [G,,F,]3 [G,,G,] [G,,G,]>[G,,G,] [G,,G,]>[G,,G,] | C,C,C,C, C,2 z2 | [C,G,]2 [C,C]2 [C,G,]2 z2 | %13
 [F,A,F]2 [F,CF]2 [F,A,F]2 [F,B,F]>[F,CF] | [G,CE]2 [G,CE]2 [G,B,F]3[K:bass] [C,C] | [C,C]6 z2 |] %16

